icons/all-notes.svg

<svg width="24" height="24" viewBox="0 0 24 24" fill="none" xmlns="http://www.w3.org/2000/svg">
<path d="M9 10C9 9.44772 9.44772 9 10 9H16C16.5523 9 17 9.44772 17 10C17 10.5523 16.5523 11 16 11H10C9.44772 11 9 10.5523 9 10Z" fill="#9AA1B4"/>
<path d="M10 13C9.44772 13 9 13.4477 9 14C9 14.5523 9.44772 15 10 15H12C12.5523 15 13 14.5523 13 14C13 13.4477 12.5523 13 12 13H10Z" fill="#9AA1B4"/>
<path fill-rule="evenodd" clip-rule="evenodd" d="M19.5 5V5.54148C20.9189 5.77952 22 7.0135 22 8.5L22 16.5C22 16.7652 21.8946 17.0196 21.7071 17.2071L17.2071 21.7071C17.0196 21.8946 16.7652 22 16.5 22H8.5C7.0135 22 5.77952 20.9189 5.54148 19.5H5C3.34315 19.5 2 18.1569 2 16.5V5C2 3.34315 3.34315 2 5 2H16.5C18.1569 2 19.5 3.34315 19.5 5ZM5 17.5C4.44772 17.5 4 17.0523 4 16.5L4 5C4 4.44771 4.44772 4 5 4L16.5 4C17.0523 4 17.5 4.44772 17.5 5V5.5L8.5 5.5C6.84315 5.5 5.5 6.84315 5.5 8.5L5.5 17.5H5ZM16.5 19.5858L19.5858 16.5L16.5 16.5V19.5858ZM20 14.5L16.5 14.5C15.3954 14.5 14.5 15.3954 14.5 16.5V20H8.5C7.94772 20 7.5 19.5523 7.5 19L7.5 8.5C7.5 7.94772 7.94772 7.5 8.5 7.5L19 7.5C19.5523 7.5 20 7.94772 20 8.5L20 14.5Z" fill="#9AA1B4"/>
</svg>

<?xml version="1.0" encoding="utf-8"?>
<!-- Generator: Adobe Illustrator 22.1.0, SVG Export Plug-In . SVG Version: 6.00 Build 0)  -->
<svg version="1.1" id="Layer_1" xmlns="http://www.w3.org/2000/svg" xmlns:xlink="http://www.w3.org/1999/xlink" x="0px" y="0px"
	 viewBox="0 0 24 24" style="enable-background:new 0 0 24 24;" xml:space="preserve">
<style type="text/css">
	.st0{fill:#9AA1B4;}
</style>
<g>
	<path class="st0" d="M19.5,5.5V5c0-1.7-1.3-3-3-3H5C3.3,2,2,3.3,2,5v11.5c0,1.7,1.3,3,3,3h0.5C5.8,20.9,7,22,8.5,22h8
		c0.3,0,0.5-0.1,0.7-0.3l4.5-4.5c0.2-0.2,0.3-0.4,0.3-0.7v-8C22,7,20.9,5.8,19.5,5.5z M5.5,8.5v9H5c-0.6,0-1-0.4-1-1V5
		c0-0.6,0.4-1,1-1h11.5c0.6,0,1,0.4,1,1v0.5h-9C6.8,5.5,5.5,6.8,5.5,8.5z M16.5,19.6v-3.1h3.1L16.5,19.6z M20,14.5h-3.5
		c-1.1,0-2,0.9-2,2V20h-6c-0.6,0-1-0.4-1-1V8.5c0-0.6,0.4-1,1-1H19c0.6,0,1,0.4,1,1V14.5z"/>
	<path class="st0" d="M16,9h-6c-0.6,0-1,0.4-1,1s0.4,1,1,1h6c0.6,0,1-0.4,1-1S16.6,9,16,9z"/>
	<path class="st0" d="M12,13h-2c-0.6,0-1,0.4-1,1s0.4,1,1,1h2c0.6,0,1-0.4,1-1S12.6,13,12,13z"/>
</g>
</svg>
